X: 20757
M: C
L: 1/8
K: A
|:\
(3(efg) |\
(ae)(cA) .E2(AB) | (cA)(dA) (eA)(fA) | (ae)(cA) EAcA | dc{c}BA B2 (3(efg) |\
(ae)(cA) .E2(AB) | (cA)(dA) (eA)(fA) | efed (ca)fd | c2A2 A2 :|


